en/toloka-apps/_images/batch-pause.svg

<svg width="16" height="16" viewBox="0 0 16 16" fill="none" xmlns="http://www.w3.org/2000/svg">
<path fill-rule="evenodd" clip-rule="evenodd" d="M4 1.00195C3.44772 1.00195 3 1.44966 3 2.00195V14.0019C3 14.5542 3.44772 15.0019 4 15.0019H6C6.55228 15.0019 7 14.5542 7 14.0019V2.00195C7 1.44966 6.55228 1.00195 6 1.00195H4ZM10 1.00195C9.44772 1.00195 9 1.44966 9 2.00195V14.0019C9 14.5542 9.44772 15.0019 10 15.0019H12C12.5523 15.0019 13 14.5542 13 14.0019V2.00195C13 1.44966 12.5523 1.00195 12 1.00195H10Z" fill="#7F8285"/>
</svg>

<svg xmlns="http://www.w3.org/2000/svg" width="16" height="16" fill="none"><path fill="#7F8285" fill-rule="evenodd" d="M4 1.002a1 1 0 0 0-1 1v12a1 1 0 0 0 1 1h2a1 1 0 0 0 1-1v-12a1 1 0 0 0-1-1H4Zm6 0a1 1 0 0 0-1 1v12a1 1 0 0 0 1 1h2a1 1 0 0 0 1-1v-12a1 1 0 0 0-1-1h-2Z" clip-rule="evenodd"/></svg>
